storage/app/icons/tabler/filled/aspect-ratio.svg

<!--
version: "2.9"
unicode: "f7db"
-->
<svg
  xmlns="http://www.w3.org/2000/svg"
  width="24"
  height="24"
  viewBox="0 0 24 24"
  fill="currentColor"
>
  <path d="M19 4h-14a3 3 0 0 0 -3 3v10a3 3 0 0 0 3 3h14a3 3 0 0 0 3 -3v-10a3 3 0 0 0 -3 -3zm-10 3a1 1 0 0 1 .117 1.993l-.117 .007h-2v2a1 1 0 0 1 -.883 .993l-.117 .007a1 1 0 0 1 -.993 -.883l-.007 -.117v-3a1 1 0 0 1 .883 -.993l.117 -.007h3zm9 5a1 1 0 0 1 .993 .883l.007 .117v3a1 1 0 0 1 -.883 .993l-.117 .007h-3a1 1 0 0 1 -.117 -1.993l.117 -.007h2v-2a1 1 0 0 1 .883 -.993l.117 -.007z" />
</svg>

<svg xmlns="http://www.w3.org/2000/svg" width="24" height="24" fill="currentColor" viewBox="0 0 24 24"><path d="M19 4H5a3 3 0 0 0-3 3v10a3 3 0 0 0 3 3h14a3 3 0 0 0 3-3V7a3 3 0 0 0-3-3M9 7a1 1 0 0 1 .117 1.993L9 9H7v2a1 1 0 0 1-.883.993L6 12a1 1 0 0 1-.993-.883L5 11V8a1 1 0 0 1 .883-.993L6 7zm9 5a1 1 0 0 1 .993.883L19 13v3a1 1 0 0 1-.883.993L18 17h-3a1 1 0 0 1-.117-1.993L15 15h2v-2a1 1 0 0 1 .883-.993z"/></svg>
